X: 020026
T: Boy Genius (reel)
N: 086
N: revised version 1/1/07
C: BB
R: reel
Q: 1/8=370
M: 4/4
L: 1/8
K: G
D|"G"GEED "Am"EGAc|"G"BGGF GABd|"G"gdde "F"=fc c2|"Bb"_BAGB "Dm"AG=FD |
"G"GEED "Am"EGAc|"G"BGGF GABd|"G"gabg "Am"afge|"D"dcAF "G"G3 :|
A|"G"dgga bg (3gfg|"F"a=ffe dfcf|"G"=B2 Bd "Am"c2 cA|"G"=Bcde "F"=fefa |
"G"g2 dg Bgdg|"F"=f2 cf AfcA|"G"=BddB "F"=ce=fd|"D"cAFA "G"G3 :|
